X: 37408
T: Sleepy Ned Of Newport
R: reel
M: 4/4
K: Gmajor
|:dGGe dG (3Bcd|cBAB cdeg|dGGe dG (3Bcd|cBAG FA (3FED|
dGGe dG (3Bcd|cBAB cdeg|d2 cB cgge|dccB G3A:|
|:Bdga ggdB|cBAB cdeg|Bdga ggdB|cBAG FA (3FED|
Bdga ggdB|cBAB cdeg|d2 cB cgge|dccB G3A|
Bdga ggdB|cBAB cdeg|(3Bcd ga ggdB|cBAG FAGF|
E2 GE FGAc|BG (3Bcd gdBG|E2 GE DEGA|BGcB A4||

